svgs/nature/u1F310.layer1.svg

<svg xmlns="http://www.w3.org/2000/svg" viewBox="0 0 512 512" enable-background="new 0 0 512 512"><path fill="#0096D1" d="M425.393 86.607C380.146 41.36 319.988 16.442 256 16.442S131.854 41.362 86.607 86.607C41.36 131.854 16.442 192.012 16.442 256S41.36 380.146 86.607 425.393C131.854 470.64 192.012 495.558 256 495.558s124.146-24.918 169.393-70.165C470.64 380.146 495.558 319.988 495.558 256S470.64 131.854 425.393 86.607zM386.027 242.5c-1.14-38.785-7.187-75.873-17.566-108.605 16.924-4.79 32.655-10.738 47.35-17.882 30.04 34.253 49.266 78.207 52.308 126.487h-82.09zM242.5 466.638c-20.99-5.95-40.87-25.655-57.048-56.984-2.038-3.947-3.985-8.025-5.844-12.22 11.593-2.2 23.68-3.934 36.277-5.157 8.91-.865 17.782-1.435 26.615-1.74v76.1zm27-76.15c21.326.656 42.336 2.977 62.887 6.956-1.858 4.19-3.803 8.266-5.84 12.21-16.178 31.328-36.058 51.035-57.047 56.983v-76.15zm-27-26.963c-9.7.314-19.444.927-29.225 1.877-15.11 1.467-29.588 3.622-43.422 6.43-9.922-30.537-15.727-65.522-16.87-102.332H242.5v94.025zM152.984 242.5c1.143-36.816 6.95-71.805 16.874-102.345 23.712 4.87 47.99 7.663 72.642 8.375v93.97h-89.516zM242.5 121.523c-21.327-.657-42.338-2.984-62.89-6.96 1.858-4.193 3.805-8.27 5.842-12.217 16.18-31.33 36.058-51.037 57.048-56.985v76.164zm27-76.16c20.99 5.947 40.87 25.654 57.048 56.984 2.048 3.966 4.004 8.066 5.87 12.282-10.416 1.956-21.3 3.53-32.688 4.73-10.122 1.063-20.202 1.75-30.23 2.094V45.362zm81.038 44.596c-6.618-12.818-13.906-24.063-21.732-33.67 24.658 9.016 47.19 22.48 66.63 39.41-11.36 4.975-23.44 9.21-36.288 12.755-2.686-6.4-5.554-12.58-8.61-18.497zm-189.076 0c-3.04 5.886-5.896 12.033-8.57 18.4-13.017-3.575-25.073-7.776-36.326-12.66 19.438-16.93 41.97-30.393 66.628-39.41-7.826 9.607-15.114 20.852-21.732 33.67zM143.57 133.8c-10.398 32.754-16.455 69.877-17.597 108.7h-82.09c3.04-48.266 22.254-92.208 52.28-126.457 14.554 7.04 30.244 12.923 47.407 17.756zm-17.597 135.7c1.142 38.814 7.196 75.928 17.59 108.678-16.98 4.812-32.78 10.77-47.36 17.823-30.05-34.253-49.278-78.213-52.32-126.5h82.09zm26.91 134.116c2.676 6.375 5.535 12.53 8.58 18.425 6.617 12.818 13.905 24.063 21.73 33.67-24.647-9.013-47.17-22.47-66.604-39.39 11.31-4.92 23.426-9.15 36.29-12.703zm206.214.05c12.792 3.548 24.916 7.798 36.26 12.703-19.42 16.896-41.926 30.334-66.55 39.34 7.825-9.61 15.113-20.854 21.732-33.67 3.034-5.88 5.885-12.018 8.556-18.374zm-16.954-31.824c-23.71-4.874-47.99-7.655-72.643-8.367V269.5h89.516c-1.144 36.815-6.95 71.803-16.873 102.342zM269.5 242.5v-94.023c10.966-.354 21.99-1.103 33.056-2.267 13.854-1.458 27.024-3.464 39.606-5.993 9.912 30.525 15.712 65.492 16.855 102.283H269.5zm146.193 153.618l.068-.14c-14.596-7.01-30.46-12.953-47.337-17.75 10.403-32.763 16.463-69.895 17.605-108.73h82.09c-3.046 48.344-22.316 92.348-52.424 126.62z"/></svg>

<?xml version="1.0" encoding="iso-8859-1"?>
<!-- Generator: Adobe Illustrator 18.1.0, SVG Export Plug-In . SVG Version: 6.00 Build 0)  -->
<!DOCTYPE svg PUBLIC "-//W3C//DTD SVG 1.1//EN" "http://www.w3.org/Graphics/SVG/1.1/DTD/svg11.dtd">
<svg version="1.1" xmlns="http://www.w3.org/2000/svg" xmlns:xlink="http://www.w3.org/1999/xlink" x="0px" y="0px"
	 viewBox="0 0 512 512" enable-background="new 0 0 512 512" xml:space="preserve">
<g id="Layer_2">
	<path fill="#0096D1" d="M425.393,86.607C380.146,41.361,319.988,16.442,256,16.442S131.854,41.361,86.607,86.607
		C41.361,131.854,16.442,192.012,16.442,256s24.918,124.146,70.165,169.393C131.854,470.64,192.012,495.558,256,495.558
		s124.146-24.918,169.393-70.165C470.64,380.146,495.558,319.988,495.558,256S470.64,131.854,425.393,86.607z M386.027,242.5
		c-1.141-38.785-7.187-75.873-17.566-108.605c16.922-4.791,32.653-10.738,47.349-17.882c30.041,34.253,49.265,78.207,52.307,126.487
		H386.027z M242.5,466.638c-20.989-5.949-40.869-25.655-57.048-56.984c-2.038-3.947-3.985-8.025-5.844-12.219
		c11.593-2.202,23.68-3.935,36.277-5.158c8.909-0.865,17.782-1.435,26.615-1.739V466.638z M269.5,390.488
		c21.326,0.656,42.336,2.977,62.887,6.956c-1.858,4.191-3.803,8.266-5.839,12.209c-16.179,31.329-36.059,51.036-57.048,56.984
		V390.488z M242.5,363.525c-9.7,0.314-19.444,0.927-29.225,1.877c-15.111,1.467-29.588,3.622-43.422,6.429
		c-9.922-30.536-15.727-65.521-16.87-102.331H242.5V363.525z M152.984,242.5c1.143-36.816,6.95-71.805,16.874-102.345
		c23.712,4.87,47.989,7.663,72.642,8.375v93.97H152.984z M242.5,121.523c-21.327-0.657-42.338-2.984-62.891-6.959
		c1.859-4.194,3.806-8.272,5.843-12.218c16.179-31.33,36.058-51.037,57.048-56.985V121.523z M269.5,45.362
		c20.989,5.948,40.869,25.655,57.048,56.985c2.048,3.966,4.004,8.066,5.871,12.282c-10.417,1.958-21.302,3.531-32.689,4.73
		c-10.122,1.065-20.202,1.752-30.229,2.096V45.362z M350.538,89.959c-6.618-12.816-13.906-24.061-21.732-33.669
		c24.658,9.017,47.19,22.48,66.629,39.411c-11.359,4.975-23.438,9.21-36.287,12.755C356.462,102.056,353.594,95.877,350.538,89.959z
		 M161.462,89.959c-3.041,5.888-5.896,12.035-8.57,18.401c-13.017-3.574-25.073-7.775-36.326-12.659
		c19.438-16.93,41.97-30.393,66.628-39.41C175.368,65.898,168.08,77.143,161.462,89.959z M143.57,133.799
		c-10.398,32.755-16.455,69.878-17.597,108.701H43.883c3.041-48.266,22.254-92.208,52.281-126.457
		C110.717,123.082,126.407,128.966,143.57,133.799z M125.973,269.5c1.142,38.814,7.196,75.928,17.589,108.678
		c-16.978,4.812-32.778,10.77-47.359,17.823C66.154,361.746,46.925,317.786,43.883,269.5H125.973z M152.882,403.616
		c2.677,6.375,5.536,12.529,8.58,18.425c6.618,12.816,13.906,24.061,21.731,33.669c-24.647-9.014-47.171-22.469-66.604-39.389
		C127.899,411.401,140.017,407.17,152.882,403.616z M359.097,403.667c12.792,3.547,24.916,7.797,36.26,12.702
		c-19.421,16.898-41.926,30.336-66.55,39.341c7.825-9.608,15.113-20.853,21.732-33.669
		C353.575,416.161,356.426,410.023,359.097,403.667z M342.143,371.842c-23.709-4.874-47.99-7.655-72.643-8.367V269.5h89.516
		C357.872,306.315,352.066,341.303,342.143,371.842z M269.5,242.5v-94.023c10.966-0.354,21.991-1.103,33.056-2.267
		c13.854-1.458,27.024-3.464,39.606-5.993c9.912,30.525,15.712,65.492,16.855,102.283H269.5z M415.693,396.118l0.068-0.141
		c-14.598-7.008-30.463-12.952-47.339-17.75c10.403-32.762,16.463-69.894,17.605-108.728h82.089
		C465.071,317.842,445.801,361.846,415.693,396.118z"/>
</g>
<g id="Layer_1">
</g>
</svg>
